X: 39375
T: Tanga's
R: reel
M: 4/4
K: Dmajor
|dAFA GFEG|(3FED FA dAFD|CDEF GEed|cdec Agfe|
dAFA GFEG|(3FED FA dAFD|CDEF GEed|cAGE D2 FA:|
dcde ~f3g|a^gab a=gec|dcde fefg|aA (3cBA ABcA|
d2 de ~f3g|(3aba ^gb a=gec|dfed cA (3BBc|1 dD (3DDD DABc:|2 dAFA DABc||

